packages/core/src/Assets/SvgComponents/header/deriv-brand-logo-dark.svg

<svg width="80" height="15" viewBox="0 0 400 72" fill="none" xmlns="http://www.w3.org/2000/svg">
<g clip-path="url(#clip0_17_31)">
<path d="M16.233 3L41.5 36L1 69H41.9336C47.7348 69.001 53.3666 67.0207 57.907 63.4098C62.4475 59.7988 65.6299 54.7555 66.935 49.103L70.324 34.422C71.1921 30.6614 71.2005 26.7533 70.3485 22.989C69.4964 19.2247 67.806 15.7012 65.403 12.681C63.0001 9.66076 59.9466 7.22169 56.47 5.54549C52.9935 3.8693 49.1835 2.99919 45.324 3H16.233Z" fill="url(#paint0_linear_17_31)"/>
<path d="M41.5 36L23.5 69H1L41.5 36Z" fill="#CC2E3D"/>
<path fill-rule="evenodd" clip-rule="evenodd" d="M101.642 3H127.395C148.148 3 159.974 17.2372 156.698 35.8075L156.664 35.9955C153.388 54.5697 136.505 68.996 115.752 68.996H90L101.642 3ZM118.064 55.894C123.684 55.9854 129.148 54.0405 133.446 50.4185C137.744 46.7966 140.585 41.7423 141.444 36.1895L141.477 36.0005C143.54 24.3048 136.968 16.103 125.083 16.103H113.858L106.839 55.891L118.064 55.894Z" fill="white"/>
<path d="M175.823 3H226.102L223.823 15.9169H187.978L185.615 29.306H208.445L206.164 42.2229H183.337L180.892 56.0831H216.737L214.458 69H164.18L175.823 3Z" fill="white"/>
<path d="M290.727 24.969C288.848 35.6264 281.913 42.3169 272.969 45.4286L284.941 68.997H267.961L252.156 35.0543H263.102C270.175 35.0543 274.898 31.2824 275.879 25.7202L275.913 25.5311C277.01 19.3087 273.236 16.103 266.162 16.103H251.729L242.398 69H227.871L239.514 3H269.7C278.095 3 284.188 5.35754 287.759 9.69452C290.792 13.3714 291.862 18.5575 290.761 24.7799L290.727 24.969Z" fill="white"/>
<path d="M307.98 3H322.507L310.864 69H296.337L307.98 3Z" fill="white"/>
<path d="M350.176 3H334.254L349.113 69H361.851L400 3H384.452L359.171 49.1535L350.176 3Z" fill="white"/>
</g>
<defs>
<linearGradient id="paint0_linear_17_31" x1="45.216" y1="-8.372" x2="32.07" y2="74.551" gradientUnits="userSpaceOnUse">
<stop stop-color="#FF6444"/>
<stop offset="1" stop-color="#FF444F"/>
</linearGradient>
<clipPath id="clip0_17_31">
<rect width="400" height="72" fill="white"/>
</clipPath>
</defs>
</svg>

<svg width="80" height="15" viewBox="0 0 400 72" fill="none" xmlns="http://www.w3.org/2000/svg"><g clip-path="url(#a)"><path d="M16.233 3 41.5 36 1 69h40.934a25.672 25.672 0 0 0 15.973-5.59 25.653 25.653 0 0 0 9.028-14.307l3.389-14.681A25.653 25.653 0 0 0 45.324 3H16.233Z" fill="url(#b)"/><path d="m41.5 36-18 33H1l40.5-33Z" fill="#CC2E3D"/><path fill-rule="evenodd" clip-rule="evenodd" d="M101.642 3h25.753c20.753 0 32.579 14.237 29.303 32.807l-.034.188c-3.276 18.575-20.159 33.001-40.912 33.001H90L101.642 3Zm16.422 52.894a23.283 23.283 0 0 0 15.382-5.475 23.257 23.257 0 0 0 7.998-14.23l.033-.188c2.063-11.696-4.509-19.898-16.394-19.898h-11.225l-7.019 39.788 11.225.003Z" fill="#fff"/><path d="M175.823 3h50.279l-2.279 12.917h-35.845l-2.363 13.389h22.83l-2.281 12.917h-22.827l-2.445 13.86h35.845L214.458 69H164.18l11.643-66ZM290.727 24.969c-1.879 10.657-8.814 17.348-17.758 20.46l11.972 23.568h-16.98l-15.805-33.943h10.946c7.073 0 11.796-3.772 12.777-9.334l.034-.189c1.097-6.222-2.677-9.428-9.751-9.428h-14.433L242.398 69h-14.527l11.643-66H269.7c8.395 0 14.488 2.358 18.059 6.695 3.033 3.676 4.103 8.863 3.002 15.085l-.034.189ZM307.98 3h14.527l-11.643 66h-14.527L307.98 3ZM350.176 3h-15.922l14.859 66h12.738L400 3h-15.548l-25.281 46.154L350.176 3Z" fill="#fff"/></g><defs><linearGradient id="b" x1="45.216" y1="-8.372" x2="32.07" y2="74.551" gradientUnits="userSpaceOnUse"><stop stop-color="#FF6444"/><stop offset="1" stop-color="#FF444F"/></linearGradient><clipPath id="a"><path fill="#fff" d="M0 0h400v72H0z"/></clipPath></defs></svg>
